X:3
T:Mrs. MacLeod Of Raasay
C:Traditional
R:March
M:4/4
K:HP
{gAGAG}A2{ag}a3/2g/2 {fg}f1e1 {g}f1a1|{fg}f1e1 {gcd}c1{e}B1 {g}c2{GdGe}c1e1|{gAGAG}A2{ag}a3/2g/2 {fg}f1e1 {g}f1a1|{fg}f1e1 {gcd}c1{e}A1 {g}B2{GdGe}B1e1|!
{gAGAG}A2{ag}a3/2g/2 {fg}f1e1 {g}f1a1|{fg}f1e1 {gcd}c1{e}B1 {g}c2{GdGe}c1e1|{gfg}f3/2e/2 {g}f1a1{fg}f2{g}e1{g}f3/4g/4|{ag}a3/2f/2 {gef}e1c1 {gcd}c1{e}B1 {GdG}B1e1||!
{gAGAG}A2{gcd}c1{e}A1 {gef}e1A1 {gcd}c1a1|{gfg}f1e1 {gcd}c1{e}B1{g}c2{GdGe}c1e1|{gAGAG}A2 {gcd}c1{e}A1 {gef}e1A1 {gcd}c1a1|{fg}f1e1 {gcd}c1{e}A1 {g}B2{GdGe}B1e1|!
{gAGAG}A2{gcd}c1{e}A1 {gef}e1A1 {gcd}c1a1|{gfg}f1e1 {gcd}c1{e}B1{g}c2{GdGe}c1e1|{gfg}f3/2e/2 {g}f1a1 {fg}f2{g}e1{g}f3/4g/4|{ag}a3/2f/2 {gef}e1c1 {gcd}c1{e}B1 {GdG}Bx|]!

